X:205
T: Road to California
M: C
K: D
"D"D3E F2FE| DFAB AFD2| "G"dcBA GFED| "A"C2E2 E4|
"D"D3E F2FE| DFAB AFDc| "G"dcBA GFED| "A"C2E2 "D"D4:|
|:"G"D2B2 B4| BABc d2B2| "D (F#m)"F2A2 ABAG| FEFG "D7"AFEF|
"G"D2B2 B4| BABc d2B2| "Bm"F2FE DEFD| "A"E2E2 "D"D4 :|
